src/assets/filled/Import1.svg

<?xml version="1.0" encoding="UTF-8"?>
<svg width="24" height="24" viewBox="0 0 24 24" xmlns="http://www.w3.org/2000/svg">
 <path d="m16.19 2h-8.38c-3.64 0-5.81 2.17-5.81 5.81v8.37c0 3.65 2.17 5.82 5.81 5.82h8.37c3.64 0 5.81-2.17 5.81-5.81v-8.38c0.01-3.64-2.16-5.81-5.8-5.81zm1.34 5.53-7.72 7.72h3.02c0.41 0 0.75 0.34 0.75 0.75s-0.34 0.75-0.75 0.75h-4.83c-0.41 0-0.75-0.34-0.75-0.75v-4.83c0-0.41 0.34-0.75 0.75-0.75s0.75 0.34 0.75 0.75v3.02l7.72-7.72c0.15-0.15 0.34-0.22 0.53-0.22s0.38 0.07 0.53 0.22c0.29 0.29 0.29 0.77 0 1.06z"/>
</svg>

<svg width="24" height="24" viewBox="0 0 24 24"  xmlns="http://www.w3.org/2000/svg">
<path d="M16.19 2H7.81C4.17 2 2 4.17 2 7.81V16.18C2 19.83 4.17 22 7.81 22H16.18C19.82 22 21.99 19.83 21.99 16.19V7.81C22 4.17 19.83 2 16.19 2ZM17.53 7.53L9.81 15.25H12.83C13.24 15.25 13.58 15.59 13.58 16C13.58 16.41 13.24 16.75 12.83 16.75H8C7.59 16.75 7.25 16.41 7.25 16V11.17C7.25 10.76 7.59 10.42 8 10.42C8.41 10.42 8.75 10.76 8.75 11.17V14.19L16.47 6.47C16.62 6.32 16.81 6.25 17 6.25C17.19 6.25 17.38 6.32 17.53 6.47C17.82 6.76 17.82 7.24 17.53 7.53Z" />
</svg>
